Yaru++/mimetypes/16/application-x-trash.svg

<svg id="svg4" height="16.001" width="16" xmlns="http://www.w3.org/2000/svg">
  <path id="path2" d="m8.002231.50100125c-.988474 0-1.940203.17293415-2.854911.51871535-.727744.2684306-1.386944.6380279-1.979631 1.1054308l-1.057477-.8980005-.857423 3.7280292 3.87221-1.1679498-1.053293-.8943404c.42616-.342765.901817-.6222704 1.429688-.8357448.767175-.3042891 1.600883-.4564594 2.500837-.4564594.899955 0 1.726096.1521703 2.478516.4564594.767174.3042835 1.423712.7397664 1.969586 1.306847.545873.5532526.97366 1.2242073 1.283481 2.0125934.30982.7883813.464845 1.6595992.464845 2.6139583 0 .9543592-.155025 1.8258392-.464845 2.6142222-.309821.788381-.737608 1.46617-1.283481 2.03325-.545874.553253-1.202412.988735-1.969586 1.306854-.75242.304283-1.578561.456454-2.478516.456454-.899954 0-1.733662-.152171-2.500837-.456454-.75242-.318119-1.401391-.753601-1.947265-1.306854-.545874-.56708-.973663-1.244869-1.283483-2.03325-.309819-.788383-.464842-1.659863-.464842-2.6142222 0-.7898944.108047-1.5218907.320311-2.1980495l-1.450892.4376231c-.115669.552316-.175223 1.1383586-.175223 1.7604264 0 1.189488.206605 2.2475662.619698 3.1742622.413095.926691.958901 1.715128 1.637555 2.365198.693407.636236 1.490113 1.127171 2.390067 1.472952.914708.331953 1.866437.498047 2.854911.498047s1.932636-.166094 2.832588-.498047c.914709-.345781 1.711414-.836716 2.390067-1.472952.693407-.65007 1.246784-1.438507 1.659877-2.365198.413093-.926696.61942-1.9847742.61942-3.1742622 0-1.1756588-.206327-2.2266442-.61942-3.1533359-.413093-.9405254-.96647-1.7289611-1.659877-2.3652021-.678653-.6362363-1.475358-1.1203334-2.390067-1.4522852-.899952-.3457812-1.844114-.51871535-2.832588-.51871535zm.558315 2.67857315c-.316572 0-.571429.2389303-.571429.5357128v4.2857151h-2.857143c-.316571 0-.571428.2389304-.571428.5357176 0 .2967825.254857.5357129.571428.5357129h3.428572c.316571 0 .571428-.2389304.571428-.5357129v-4.8214327c0-.2967825-.254857-.5357128-.571428-.5357128z" fill="#808080" stroke-width=".968246"/>
</svg>

<?xml version="1.0" encoding="UTF-8" standalone="no"?>
<svg
   xmlns:dc="http://purl.org/dc/elements/1.1/"
   xmlns:cc="http://creativecommons.org/ns#"
   xmlns:rdf="http://www.w3.org/1999/02/22-rdf-syntax-ns#"
   xmlns:svg="http://www.w3.org/2000/svg"
   xmlns="http://www.w3.org/2000/svg"
   xmlns:sodipodi="http://sodipodi.sourceforge.net/DTD/sodipodi-0.dtd"
   xmlns:inkscape="http://www.inkscape.org/namespaces/inkscape"
   width="16"
   height="16.001"
   version="1.1"
   id="svg4"
   sodipodi:docname="application-x-trash.svg"
   inkscape:version="0.92.4 (5da689c313, 2019-01-14)">
  <metadata
     id="metadata10">
    <rdf:RDF>
      <cc:Work
         rdf:about="">
        <dc:format>image/svg+xml</dc:format>
        <dc:type
           rdf:resource="http://purl.org/dc/dcmitype/StillImage" />
      </cc:Work>
    </rdf:RDF>
  </metadata>
  <defs
     id="defs8" />
  <sodipodi:namedview
     pagecolor="#ffffff"
     bordercolor="#666666"
     borderopacity="1"
     objecttolerance="10"
     gridtolerance="10"
     guidetolerance="10"
     inkscape:pageopacity="0"
     inkscape:pageshadow="2"
     inkscape:window-width="856"
     inkscape:window-height="480"
     id="namedview6"
     showgrid="false"
     inkscape:zoom="14.749079"
     inkscape:cx="8"
     inkscape:cy="8.0004997"
     inkscape:window-x="0"
     inkscape:window-y="27"
     inkscape:window-maximized="0"
     inkscape:current-layer="svg4" />
  <path
     style="fill:#808080;stroke-width:0.96824586"
     d="m 8.002231,0.50100125 c -0.988474,0 -1.940203,0.17293415 -2.854911,0.51871535 C 4.419576,1.2881472 3.760376,1.6577445 3.167689,2.1251474 L 2.110212,1.2271469 1.252789,4.9551761 5.124999,3.7872263 4.071706,2.8928859 C 4.497866,2.5501209 4.973523,2.2706155 5.501394,2.0571411 6.268569,1.752852 7.102277,1.6006817 8.002231,1.6006817 c 0.899955,0 1.726096,0.1521703 2.478516,0.4564594 0.767174,0.3042835 1.423712,0.7397664 1.969586,1.306847 0.545873,0.5532526 0.97366,1.2242073 1.283481,2.0125934 0.30982,0.7883813 0.464845,1.6595992 0.464845,2.6139583 0,0.9543592 -0.155025,1.8258392 -0.464845,2.6142222 -0.309821,0.788381 -0.737608,1.46617 -1.283481,2.03325 -0.545874,0.553253 -1.202412,0.988735 -1.969586,1.306854 -0.75242,0.304283 -1.578561,0.456454 -2.478516,0.456454 -0.899954,0 -1.733662,-0.152171 -2.500837,-0.456454 C 4.748974,13.626747 4.100003,13.191265 3.554129,12.638012 3.008255,12.070932 2.580466,11.393143 2.270646,10.604762 1.960827,9.816379 1.805804,8.944899 1.805804,7.9905398 c 0,-0.7898944 0.108047,-1.5218907 0.320311,-2.1980495 L 0.675223,6.2301134 C 0.559554,6.7824294 0.5,7.368472 0.5,7.9905398 c 0,1.189488 0.206605,2.2475662 0.619698,3.1742622 0.413095,0.926691 0.958901,1.715128 1.637555,2.365198 0.693407,0.636236 1.490113,1.127171 2.390067,1.472952 0.914708,0.331953 1.866437,0.498047 2.854911,0.498047 0.988474,0 1.932636,-0.166094 2.832588,-0.498047 0.914709,-0.345781 1.711414,-0.836716 2.390067,-1.472952 0.693407,-0.65007 1.246784,-1.438507 1.659877,-2.365198 0.413093,-0.926696 0.61942,-1.9847742 0.61942,-3.1742622 0,-1.1756588 -0.206327,-2.2266442 -0.61942,-3.1533359 C 14.47167,3.8966785 13.918293,3.1082428 13.224886,2.4720018 12.546233,1.8357655 11.749528,1.3516684 10.834819,1.0197166 9.934867,0.6739354 8.990705,0.50100125 8.002231,0.50100125 Z M 8.560546,3.1795744 c -0.316572,0 -0.571429,0.2389303 -0.571429,0.5357128 V 8.0010023 H 5.131974 c -0.316571,0 -0.571428,0.2389304 -0.571428,0.5357176 0,0.2967825 0.254857,0.5357129 0.571428,0.5357129 h 3.428572 c 0.316571,0 0.571428,-0.2389304 0.571428,-0.5357129 V 3.7152872 c 0,-0.2967825 -0.254857,-0.5357128 -0.571428,-0.5357128 z"
     id="path2"
     inkscape:connector-curvature="0" />
</svg>
